logos/adroll.svg

<?xml version="1.0" encoding="UTF-8"?>
<svg width="512px" height="95px" viewBox="0 0 512 95" version="1.1" xmlns="http://www.w3.org/2000/svg" xmlns:xlink="http://www.w3.org/1999/xlink" preserveAspectRatio="xMidYMid">
    <g>
        <path d="M102.607225,46.5399121 C102.607225,20.8447993 82.3975862,0 56.0673134,0 C38.57154,0 23.3854397,9.58514318 15.4170676,23.8473743 L38.1096054,46.5399121 L38.1096054,46.5399121 C38.1096054,36.6083179 46.4821702,28.5822041 56.0673134,28.5822041 C66.2298749,28.5822041 74.0250214,36.6083179 74.0250214,46.5399121 C74.0250214,56.4715062 66.172133,64.4976201 56.0673134,64.4976201 L56.0095716,64.4976201 L56.0095716,64.4976201 L17.3802897,64.4976201 C7.79514656,64.4976201 0,72.2927666 0,81.8779098 L0,93.0798241 L56.0673134,93.0798241 C82.2243608,93.0798241 102.607225,72.2350248 102.607225,46.5399121" fill="#0DBDFF"></path>
        <path d="M314.635212,41.0544386 L336.346139,41.0544386 C344.776445,41.0544386 349.164824,37.0702525 349.164824,29.6215569 C349.164824,22.0573777 344.776445,18.0731917 336.346139,18.0731917 L314.635212,18.0731917 L314.635212,41.0544386 Z M327.165188,59.185372 L314.635212,59.185372 L314.635212,93.0798241 L295.176216,93.0798241 L295.176216,10.4512706 C295.176216,4.67708794 299.853304,0 305.685229,0 L336.923557,0 C357.075454,0 369.316722,12.1257835 369.316722,29.5060733 C369.316722,43.4795953 361.463833,54.1040913 347.836762,57.85731 L372.088329,93.0798241 L348.760631,93.0798241 L327.165188,59.185372 Z M511.996775,90.5969256 C508.185814,93.0798241 503.681952,94.8120789 498.831638,94.8120789 C485.435534,94.8120789 479.141675,85.6311285 479.141675,72.5814758 L479.141675,4.85031342 L497.561318,0.461934611 L497.561318,72.7547012 C497.561318,76.3924363 499.351315,78.6443675 502.584857,78.6443675 C503.566468,78.6443675 504.663563,78.4134002 505.702915,77.9514656 L511.996775,90.5969256 Z M479.834577,90.5969256 C476.023617,93.0798241 471.519754,94.8120789 466.669441,94.8120789 C453.273337,94.8120789 446.979478,85.6311285 446.979478,72.5814758 L446.979478,12.5299763 L465.399121,7.96837204 L465.399121,72.7547012 C465.399121,76.3924363 467.189117,78.6443675 470.42266,78.6443675 C471.404271,78.6443675 472.501365,78.4134002 473.540718,77.9514656 L479.834577,90.5969256 Z M422.035009,59.4163393 C422.035009,48.6186178 415.10599,41.1699222 404.712461,41.1699222 C394.318932,41.1699222 387.389913,48.5031342 387.389913,59.4163393 C387.389913,70.3295445 394.318932,77.6627565 404.712461,77.6627565 C415.10599,77.6627565 422.035009,70.3295445 422.035009,59.4163393 M368.566078,59.4163393 C368.566078,38.6870237 383.752178,24.1938253 404.712461,24.1938253 C425.672744,24.1938253 440.974328,38.57154 440.974328,59.4163393 C440.974328,80.3188805 425.615002,94.8120789 404.712461,94.8120789 C383.752178,94.8120789 368.566078,80.3188805 368.566078,59.4163393 M156.307124,55.4898952 L169.587744,19.9209301 L182.868364,55.4898952 L156.307124,55.4898952 Z M155.614222,6.58256821 L121.546545,93.0798241 L142.218118,93.0798241 L149.493589,73.5630868 L189.624158,73.5630868 L196.899628,93.0798241 L217.571202,93.0798241 L180.905142,0 L165.372591,0 C161.099696,0 157.230993,2.59838219 155.614222,6.58256821 M250.71501,77.6627565 C240.436965,77.6627565 233.392462,70.3295445 233.392462,59.4163393 C233.392462,48.5031342 240.436965,41.1699222 250.71501,41.1699222 C260.993055,41.1699222 268.037558,48.5031342 268.037558,59.4163393 C268.037558,70.6182537 260.81983,77.6627565 250.71501,77.6627565 M266.82498,32.5663901 C262.263375,27.2541421 255.334356,24.1938253 246.961791,24.1938253 C228.946342,24.1938253 214.568627,38.57154 214.568627,59.3008557 C214.568627,80.2033968 228.946342,94.8120789 246.442115,94.8120789 C255.796291,94.8120789 263.129503,90.7124092 267.806591,83.8988737 L268.614976,93.0798241 L285.129139,93.0798241 L285.129139,0 L277.333992,0 C271.559809,0 266.82498,4.67708794 266.82498,10.4512706 L266.82498,32.5663901 Z" fill="#333333"></path>
    </g>
</svg>

<svg preserveAspectRatio="xMidYMid" viewBox="0 0 512 95" xmlns="http://www.w3.org/2000/svg">
  <path fill="#0DBDFF" d="M102.607 46.54c0-25.695-20.21-46.54-46.54-46.54-17.495 0-32.682 9.585-40.65 23.847L38.11 46.54c0-9.932 8.372-17.958 17.957-17.958 10.163 0 17.958 8.026 17.958 17.958 0 9.932-7.853 17.958-17.958 17.958H17.38C7.795 64.498 0 72.293 0 81.878V93.08h56.067c26.157 0 46.54-20.845 46.54-46.54"/>
  <path fill="#333" d="M314.635 41.054h21.711c8.43 0 12.819-3.984 12.819-11.432 0-7.565-4.389-11.549-12.819-11.549h-21.71v22.981Zm12.53 18.131h-12.53V93.08h-19.459V10.45c0-5.774 4.677-10.451 10.51-10.451h31.238c20.151 0 32.393 12.126 32.393 29.506 0 13.974-7.853 24.598-21.48 28.351l24.251 35.223h-23.327l-21.596-33.895Zm184.832 31.412c-3.811 2.483-8.315 4.215-13.165 4.215-13.396 0-19.69-9.18-19.69-22.23V4.85l18.42-4.388v72.293c0 3.637 1.79 5.89 5.023 5.89.981 0 2.079-.232 3.118-.694l6.294 12.646Zm-32.162 0c-3.811 2.483-8.315 4.215-13.166 4.215-13.396 0-19.69-9.18-19.69-22.23V12.53l18.42-4.562v64.787c0 3.637 1.79 5.89 5.024 5.89.981 0 2.078-.232 3.118-.694l6.294 12.646Zm-57.8-31.18c0-10.798-6.929-18.247-17.323-18.247-10.393 0-17.322 7.333-17.322 18.246 0 10.914 6.929 18.247 17.322 18.247 10.394 0 17.323-7.333 17.323-18.247m-53.469 0c0-20.729 15.186-35.222 36.146-35.222s36.262 14.378 36.262 35.222c0 20.903-15.359 35.396-36.262 35.396-20.96 0-36.146-14.493-36.146-35.396M156.307 55.49l13.28-35.57 13.281 35.57h-26.56Zm-.693-48.907L121.547 93.08h20.671l7.276-19.517h40.13L196.9 93.08h20.671L180.905 0h-15.532a10.543 10.543 0 0 0-9.759 6.583m95.101 71.08c-10.278 0-17.323-7.333-17.323-18.247 0-10.913 7.045-18.246 17.323-18.246s17.323 7.333 17.323 18.246c0 11.202-7.218 18.247-17.323 18.247m16.11-45.097c-4.562-5.312-11.49-8.372-19.863-8.372-18.016 0-32.393 14.378-32.393 35.107 0 20.902 14.377 35.511 31.873 35.511 9.354 0 16.688-4.1 21.365-10.913l.808 9.18h16.514V0h-7.795c-5.774 0-10.509 4.677-10.509 10.451v22.115Z"/>
</svg>
